X:727
T:Vaqueirada (CT 182)
R:Vaqueirada
C:Tradicional
S:Msica Tradicional Asturiana, (C) Tello & Tito. Asturies, 2001.
S:http://pagina.de/MusTradAst <telloytito@asturies.org>
N:Cancin de baile de pandero.
N:Es propia de los vaqueiros que habitan las braas vecinas a Somiedu.
A:Asturies
O:Somiedu
Z:Cancioneru de Torner 182
M:6/8
L:1/8
Q:3/8=88
K:G
GGG GBB|dd2- d3|GGG GBB|dd2- d2z|
cdd cdc|B3/2A/2G GG2|G2F GG2|GG2- G2z||
W:Los vaqueiros vanse, vanse
W:ya queda la braa escura;
W:ya se acab la parola
W:y el cortexar a la luna.
W:
